public/usa_map.svg

<svg width="641" height="397" viewBox="0 0 641 397" fill="none" xmlns="http://www.w3.org/2000/svg">
<path d="M68.281 6.20867C66.5725 5.67891 62.4536 4.39424 58.0036 2.97713L51.2624 0.818359C50.9248 1.84646 50.9248 2.95558 51.2624 3.98368C50.3297 4.26736 49.5194 4.85658 48.9621 5.65653C48.4048 6.45648 48.1328 7.42066 48.1898 8.39394C48.289 8.87449 48.289 9.37023 48.1898 9.85078C47.8057 10.9368 46.2562 10.9235 45.1437 10.6322C43.0914 10.081 41.116 9.27576 39.2633 8.23501C36.8529 6.91061 34.0452 5.05644 31.5421 6.24841C30.2177 12.5393 31.6348 19.0421 32.0453 25.4655C32.5585 36.9678 30.4291 48.4348 25.8207 58.9861C21.2345 69.5006 15.4577 79.4545 8.60344 88.6527C7.90151 99.7379 7.61014 112.161 3.02771 122.279C2.01963 123.782 1.3217 125.47 0.974881 127.246C0.431876 131.02 2.20657 133.417 3.08068 136.662C4.40508 141.616 2.49794 144.397 1.92845 149.072C1.61059 150.654 1.61059 152.284 1.92845 153.866C2.6039 156.595 4.16669 157.959 5.54407 159.667C5.92815 160.157 10.4576 166.037 10.6695 172.726C10.8019 177.176 8.92129 178.659 10.3384 181.52C11.5833 184.023 13.464 183.798 14.3116 186.142C15.4506 189.148 12.8945 190.936 12.6164 194.936C12.3383 198.936 14.7884 200.856 17.5829 206.524C19.6811 210.81 21.0891 215.401 21.7548 220.126C21.263 221.608 21.2354 223.205 21.6756 224.703C22.1158 226.201 23.0028 227.529 24.2181 228.51C26.6153 230.364 29.5952 231.251 32.35 232.483C40.005 236.072 45.6999 242.76 51.13 249.236C53.951 252.6 56.8911 256.256 57.3017 260.613C57.4606 262.388 57.3017 264.388 58.4539 265.712C59.114 266.375 59.9507 266.835 60.8643 267.036C66.2414 268.533 74.1084 268.096 80.0019 268.679C82.2898 268.906 84.5568 269.309 86.7829 269.884C86.5437 270.965 86.6032 272.092 86.9551 273.142C87.8292 275.605 90.3455 276.705 91.9216 277.446C98.9541 280.837 93.14 278.969 105.325 284.903C111.655 287.975 112.238 288.002 114.926 289.697C117.615 291.392 118.131 292.054 120.86 293.511C123.229 294.77 125.69 295.846 128.223 296.729C133.521 298.531 131.177 298.491 146.421 300.597L164.472 303.206C165.691 303.378 167.889 304.027 169.651 302.848C171.704 301.524 171.982 298.517 172.021 297.153C177.081 297.418 181.226 297.882 184.166 298.266C189.808 299.007 191.053 299.498 192.113 300.08C195.702 302.093 196.086 304.676 199.238 308.689C204.191 315.033 206.707 313.086 210.654 318.291C215.223 324.317 211.859 326.939 216.998 334.647C219.528 338.448 222.018 340.316 226.878 343.918C229.527 345.905 231.156 346.779 232.838 346.395C234.719 345.984 235.381 344.276 237.473 341.428C240.374 337.455 242.241 334.939 245.128 333.72C250.148 331.588 256.373 334.21 259.035 336.064C261.818 337.988 264.172 340.469 265.948 343.348C269.683 348.805 269.921 351.454 273.788 360.473C274.318 361.731 277.311 367.492 283.271 379.015C284.561 381.649 286.26 384.063 288.304 386.166C290.178 388.148 292.383 389.789 294.82 391.014C300.848 393.75 307.297 395.443 313.891 396.02C312.025 387.838 312.235 379.32 314.501 371.24C315.24 368.302 316.486 365.514 318.182 363.003C321.851 357.877 327.904 355.056 333.678 352.58C339.968 349.848 345.67 345.927 350.471 341.031C351.882 339.284 353.573 337.784 355.478 336.594C358.55 335.005 362.245 335.508 365.662 336.038L373.913 337.362C380.451 338.213 386.912 339.576 393.236 341.441C397.209 342.766 401.673 344.461 405.566 342.766C406.904 342.009 408.279 341.319 409.685 340.7C414.612 339.19 419.883 344.448 424.731 342.647C421.734 338.82 419.789 334.278 419.089 329.469C418.962 328.503 419.072 327.522 419.406 326.608C419.901 325.426 420.679 324.385 421.671 323.575C425.115 320.807 437.445 321.019 445.073 320.714C449.153 320.542 457.152 320.012 463.39 321.377C465.725 321.683 467.856 322.867 469.35 324.688C470.462 326.264 470.038 327.23 470.859 327.932C473.137 329.826 478.554 325.376 485.044 322.847C492.381 319.986 500.327 325.337 505.532 331.257C508.804 334.978 511.836 339.72 510.83 344.593C510.26 347.454 508.645 351.123 511.082 352.738C511.573 352.98 512.043 353.263 512.485 353.586C513.026 354.311 513.327 355.186 513.346 356.089C513.836 358.831 515.704 361.109 517.505 363.228C523.359 370.168 525.676 374.114 528.378 376.339C533 380.127 534.59 379.65 536.735 382.961C538.682 385.954 538.722 388.405 541.04 389.252C541.967 389.549 542.954 389.607 543.91 389.422C544.866 389.237 545.76 388.814 546.509 388.193C546.938 387.821 547.293 387.372 547.556 386.868C549.885 382.709 551.413 378.149 552.059 373.426C552.906 363.93 547.595 355.109 542.88 346.832C534.41 331.988 527.232 316.445 521.425 300.372C517.77 290.28 527.478 278.863 535.662 271.923C537.124 270.794 538.488 269.545 539.742 268.189C541.821 265.686 542.735 262.467 543.966 259.461C545.198 256.454 546.999 253.395 549.979 252.124C551.41 251.514 552.999 251.369 554.376 250.667C558.84 248.429 559.051 241.979 562.495 238.363C565.938 234.747 572.812 233.979 574.176 229.092L571.594 226.033C571.265 225.711 571.047 225.294 570.971 224.841C570.971 223.821 572.295 223.384 573.196 223.04C577.567 221.49 579.288 215.862 578.136 211.372C576.626 205.531 571.514 200.777 571.514 194.698C571.716 192.048 572.375 189.454 573.461 187.029C576.205 179.41 577.803 171.425 578.202 163.336C578.56 155.84 581.341 149.39 583.103 142.145C583.469 140.137 584.167 138.203 585.169 136.424C587.221 133.192 590.983 131.577 594.082 129.312C597.181 127.047 599.697 124.014 602.492 121.365C608.187 115.988 615.074 112.095 621.841 108.121C622.251 107.953 622.596 107.655 622.821 107.274C623.457 106.042 622.411 103.804 621.325 103.671C620.239 103.539 620 104.903 618.292 105.128C617.988 105.163 617.682 105.163 617.378 105.128C614.411 104.85 613.047 101.34 612.61 98.4003C611.829 92.9314 612.054 87.3659 613.272 81.9777C613.629 80.0826 614.368 78.28 615.444 76.6801C616.802 75.1616 618.351 73.826 620.053 72.7069C627.775 66.6411 632.225 56.7346 640.873 52.0992L633.827 46.55C631.915 45.1914 630.219 43.5529 628.794 41.6894C627.354 39.2517 626.295 36.6075 625.656 33.8489C624.306 29.3925 622.569 25.0628 620.464 20.9095C620.14 20.1449 619.662 19.4552 619.06 18.8832C618.443 18.4369 617.722 18.1574 616.966 18.0715C616.209 17.9857 615.443 18.0965 614.742 18.3932C613.346 19.005 612.044 19.8122 610.875 20.7903C610.609 21.0488 610.253 21.1957 609.882 21.2009C609.074 21.1214 608.928 20.0222 608.438 19.3865C607.577 18.3005 605.684 18.8567 604.929 20.0089C604.325 21.252 603.974 22.6025 603.896 23.9821C603.207 27.9554 600.611 31.2929 599.658 35.1734C598.439 40.1399 600.028 45.4242 599.101 50.4437C598.095 55.887 594.161 60.4694 589.433 63.3301C584.57 66.0006 579.236 67.705 573.726 68.3496C568.256 69.184 562.72 69.5813 557.316 70.7865C553.608 75.5941 548.748 80.15 545.039 84.9576C544.214 85.8458 543.643 86.9388 543.384 88.1229C543.172 89.8579 544.284 91.4472 544.708 93.1292C545.821 97.4997 542.139 101.844 537.927 103.42C533.716 104.996 529.054 104.651 524.564 104.943C521.571 105.142 518.127 105.963 516.856 108.691C515.585 111.419 517.227 114.796 516.644 117.803C516.194 120.147 514.446 122.001 512.777 123.71C507.479 129.193 502.023 134.742 495.374 138.516C488.726 142.291 480.581 144.132 473.349 141.682C472.671 141.507 472.056 141.144 471.575 140.635C471.11 139.929 470.931 139.072 471.071 138.238C471.548 133.417 475.707 129.881 477.693 125.458C480.342 119.339 478.568 112.068 475.164 106.307C474.687 105.3 473.884 104.484 472.886 103.989C470.807 103.208 468.78 105.221 467.588 107.102C464.939 111.141 463.324 111.34 462.635 111.075C461.39 110.625 461.456 106.28 462.502 102.665C463.549 99.0493 464.807 98.9301 465.681 95.778C465.972 94.7317 467.482 89.2884 464.542 85.5006C462.357 82.7194 458.86 82.2293 455.099 81.6996C453.015 81.2923 450.867 81.3511 448.808 81.8718C446.466 82.5701 444.353 83.8825 442.689 85.6728C440.041 88.2421 430.386 99.4731 432.862 113.485C434.28 121.577 437.432 122.2 438.16 129.934C438.375 132.681 437.891 135.438 436.751 137.946C435.612 140.454 433.854 142.633 431.644 144.278C430.888 144.952 429.902 145.312 428.889 145.284C428.164 145.144 427.497 144.794 426.969 144.278C423.962 141.629 422.479 137.735 421.539 133.868C418.665 122.067 419.791 109.711 420.943 97.6189C421.764 89.0235 422.982 86.5337 424.664 84.1232C425.141 83.4478 430.717 75.6868 439.431 74.9584C442.862 74.6803 450.172 75.21 456.649 75.3027C457.311 75.3027 458.847 75.3027 459.297 74.4683C459.867 73.3956 458.304 71.5679 458.119 71.3692C457.364 70.5084 456.225 69.1045 451.881 68.5615C448.821 68.1774 444.928 68.5615 443.444 65.9127C443.1 65.3035 442.915 64.5883 442.319 64.1777C441.953 64.0287 441.559 63.9632 441.165 63.9861C440.771 64.009 440.386 64.1197 440.041 64.3102L430.386 68.045C428.556 68.8629 426.606 69.3773 424.611 69.5681C422.592 69.5359 420.591 69.169 418.691 68.4821L409.91 65.8332C409.42 65.6876 408.851 65.4624 408.705 64.9591C408.56 64.4559 409.05 63.8466 409.222 63.6347C410.333 62.1649 411.197 60.523 411.778 58.7742C410.005 59.2325 408.276 59.8486 406.613 60.6151C401.739 62.9063 399.991 65.4359 393.514 69.5548C389.144 72.3493 387.74 72.6142 386.469 72.2036C384.032 71.5547 382.747 68.9059 382.204 67.5417C380.588 67.9744 378.933 68.4158 377.238 68.8661C375.185 69.3562 373.158 69.8065 371.198 70.1905C370.602 68.0053 372.615 66.0584 374.443 64.7075C377.499 62.2308 380.73 59.9778 384.111 57.9663C387.665 55.9472 391.085 53.6998 394.349 51.2383L383.754 49.5034C382.681 50.0861 381.701 47.2387 380.482 47.2784C380.179 47.3271 379.892 47.45 379.648 47.636C376.999 49.2782 373.489 48.7087 370.602 47.5035C367.715 46.2983 365.053 44.4839 362.02 43.6893C358.444 42.7622 354.683 43.3052 350.988 43.1595C347.293 43.0138 343.253 41.9146 341.293 38.789C340.3 37.1997 339.969 35.2263 338.644 33.9019C337.32 32.5775 334.433 32.7232 334.221 34.5774C334.221 35.0541 334.327 35.5574 334.221 36.0342C333.983 37.3586 332.221 37.6897 330.844 37.703C300.118 37.8751 269.352 37.597 238.758 34.723C194.775 30.5644 151.798 26.0085 108.596 16.7509C104.901 15.9563 91.7362 12.4863 86.3988 11.1222C77.5121 8.85748 73.4197 7.78471 68.281 6.20867Z" fill="#298FCE"/>
</svg>

<svg width="641" height="397" fill="none" xmlns="http://www.w3.org/2000/svg"><path d="M68.281 6.209c-1.709-.53-5.827-1.815-10.277-3.232L51.262.818a5.073 5.073 0 0 0 0 3.166 4.344 4.344 0 0 0-3.072 4.41c.099.48.099.976 0 1.457-.384 1.086-1.934 1.072-3.046.781a25.525 25.525 0 0 1-5.88-2.397c-2.411-1.324-5.219-3.179-7.722-1.987-1.324 6.291.093 12.794.503 19.217a75.357 75.357 0 0 1-6.224 33.521A150.044 150.044 0 0 1 8.603 88.653c-.701 11.085-.993 23.508-5.575 33.626a13.593 13.593 0 0 0-2.053 4.967c-.543 3.774 1.232 6.171 2.106 9.416 1.324 4.954-.583 7.735-1.153 12.41a12.17 12.17 0 0 0 0 4.794c.676 2.729 2.239 4.093 3.616 5.801.384.49 4.914 6.37 5.125 13.059.133 4.45-1.748 5.933-.33 8.794 1.244 2.503 3.125 2.278 3.973 4.622 1.139 3.006-1.417 4.794-1.696 8.794-.278 4 2.172 5.92 4.967 11.588a45.315 45.315 0 0 1 4.172 13.602 7.668 7.668 0 0 0 2.463 8.384c2.397 1.854 5.377 2.741 8.132 3.973 7.655 3.589 13.35 10.277 18.78 16.753 2.821 3.364 5.761 7.02 6.172 11.377.159 1.775 0 3.775 1.152 5.099a4.883 4.883 0 0 0 2.41 1.324c5.377 1.497 13.244 1.06 19.138 1.643 2.288.227 4.555.63 6.78 1.205a6.105 6.105 0 0 0 .173 3.258c.874 2.463 3.39 3.563 4.967 4.304 7.032 3.391 1.218 1.523 13.403 7.457 6.33 3.072 6.913 3.099 9.601 4.794 2.689 1.695 3.205 2.357 5.934 3.814a52.545 52.545 0 0 0 7.363 3.218c5.298 1.802 2.954 1.762 18.198 3.868l18.051 2.609c1.219.172 3.417.821 5.179-.358 2.053-1.324 2.331-4.331 2.37-5.695 5.06.265 9.205.729 12.145 1.113 5.642.741 6.887 1.232 7.947 1.814 3.589 2.013 3.973 4.596 7.125 8.609 4.953 6.344 7.469 4.397 11.416 9.602 4.569 6.026 1.205 8.648 6.344 16.356 2.53 3.801 5.02 5.669 9.88 9.271 2.649 1.987 4.278 2.861 5.96 2.477 1.881-.411 2.543-2.119 4.635-4.967 2.901-3.973 4.768-6.489 7.655-7.708 5.02-2.132 11.245.49 13.907 2.344a24.482 24.482 0 0 1 6.913 7.284c3.735 5.457 3.973 8.106 7.84 17.125.53 1.258 3.523 7.019 9.483 18.542a27.812 27.812 0 0 0 5.033 7.151 23.483 23.483 0 0 0 6.516 4.848 58.479 58.479 0 0 0 19.071 5.006 50.326 50.326 0 0 1 .61-24.78 26.088 26.088 0 0 1 3.681-8.237c3.669-5.126 9.722-7.947 15.496-10.423a53.204 53.204 0 0 0 16.793-11.549 20.178 20.178 0 0 1 5.007-4.437c3.072-1.589 6.767-1.086 10.184-.556l8.251 1.324a125.642 125.642 0 0 1 19.323 4.079c3.973 1.325 8.437 3.02 12.33 1.325a46.039 46.039 0 0 1 4.119-2.066c4.927-1.51 10.198 3.748 15.046 1.947a27.888 27.888 0 0 1-5.642-13.178 6.04 6.04 0 0 1 .317-2.861 7.81 7.81 0 0 1 2.265-3.033c3.444-2.768 15.774-2.556 23.402-2.861 4.08-.172 12.079-.702 18.317.663a9.267 9.267 0 0 1 5.96 3.311c1.112 1.576.688 2.542 1.509 3.244 2.278 1.894 7.695-2.556 14.185-5.085 7.337-2.861 15.283 2.49 20.488 8.41 3.272 3.721 6.304 8.463 5.298 13.336-.57 2.861-2.185 6.53.252 8.145a9.48 9.48 0 0 1 1.403.848c.541.725.842 1.6.861 2.503.49 2.742 2.358 5.02 4.159 7.139 5.854 6.94 8.171 10.886 10.873 13.111 4.622 3.788 6.212 3.311 8.357 6.622 1.947 2.993 1.987 5.444 4.305 6.291a5.797 5.797 0 0 0 5.469-1.059 4.522 4.522 0 0 0 1.047-1.325 38.073 38.073 0 0 0 4.503-13.442c.847-9.496-4.464-18.317-9.179-26.594a298.188 298.188 0 0 1-21.455-46.46c-3.655-10.092 6.053-21.509 14.237-28.449a33.175 33.175 0 0 0 4.08-3.734c2.079-2.503 2.993-5.722 4.224-8.728 1.232-3.007 3.033-6.066 6.013-7.337 1.431-.61 3.02-.755 4.397-1.457 4.464-2.238 4.675-8.688 8.119-12.304 3.443-3.616 10.317-4.384 11.681-9.271l-2.582-3.059a2.17 2.17 0 0 1-.623-1.192c0-1.02 1.324-1.457 2.225-1.801 4.371-1.55 6.092-7.178 4.94-11.668-1.51-5.841-6.622-10.595-6.622-16.674.202-2.65.861-5.244 1.947-7.669a81.82 81.82 0 0 0 4.741-23.693c.358-7.496 3.139-13.946 4.901-21.191a18.371 18.371 0 0 1 2.066-5.721c2.052-3.232 5.814-4.847 8.913-7.112 3.099-2.265 5.615-5.298 8.41-7.947 5.695-5.377 12.582-9.27 19.349-13.244.41-.168.755-.466.98-.847.636-1.232-.41-3.47-1.496-3.603-1.086-.132-1.325 1.232-3.033 1.457-.304.035-.61.035-.914 0-2.967-.278-4.331-3.788-4.768-6.728a45.384 45.384 0 0 1 .662-16.422 14.205 14.205 0 0 1 2.172-5.298 23.515 23.515 0 0 1 4.609-3.973c7.722-6.066 12.172-15.972 20.82-20.608l-7.046-5.549a23.395 23.395 0 0 1-5.033-4.86 27.713 27.713 0 0 1-3.138-7.841 79.795 79.795 0 0 0-5.192-12.94 6.053 6.053 0 0 0-1.404-2.026 4.425 4.425 0 0 0-4.318-.49 16.092 16.092 0 0 0-3.867 2.397 1.455 1.455 0 0 1-.993.41c-.808-.079-.954-1.178-1.444-1.813-.861-1.087-2.754-.53-3.509.622a10.44 10.44 0 0 0-1.033 3.973c-.689 3.973-3.285 7.31-4.238 11.191-1.219 4.967.37 10.251-.557 15.27-1.006 5.444-4.94 10.026-9.668 12.887a43.016 43.016 0 0 1-15.707 5.02c-5.47.834-11.006 1.231-16.41 2.437-3.708 4.807-8.568 9.363-12.277 14.17a6.778 6.778 0 0 0-1.655 3.166c-.212 1.735.9 3.324 1.324 5.006 1.113 4.37-2.569 8.715-6.781 10.291-4.211 1.576-8.873 1.231-13.363 1.523-2.993.199-6.437 1.02-7.708 3.748s.371 6.105-.212 9.112c-.45 2.344-2.198 4.198-3.867 5.907-5.298 5.483-10.754 11.032-17.403 14.806-6.648 3.775-14.793 5.616-22.025 3.166a3.72 3.72 0 0 1-1.774-1.047 3.35 3.35 0 0 1-.504-2.397c.477-4.821 4.636-8.357 6.622-12.78 2.649-6.119.875-13.39-2.529-19.151a4.957 4.957 0 0 0-2.278-2.318c-2.079-.781-4.106 1.232-5.298 3.113-2.649 4.039-4.264 4.238-4.953 3.973-1.245-.45-1.179-4.795-.133-8.41 1.047-3.616 2.305-3.735 3.179-6.887.291-1.046 1.801-6.49-1.139-10.277-2.185-2.782-5.682-3.272-9.443-3.801a14.395 14.395 0 0 0-6.291.172 13.698 13.698 0 0 0-6.119 3.8c-2.648 2.57-12.303 13.801-9.827 27.813 1.418 8.092 4.57 8.715 5.298 16.449a16.29 16.29 0 0 1-6.516 14.344 3.976 3.976 0 0 1-2.755 1.006 3.77 3.77 0 0 1-1.92-1.006c-3.007-2.649-4.49-6.543-5.43-10.41-2.874-11.801-1.748-24.157-.596-36.25.821-8.594 2.039-11.084 3.721-13.495.477-.675 6.053-8.436 14.767-9.165 3.431-.278 10.741.252 17.218.345.662 0 2.198 0 2.648-.835.57-1.072-.993-2.9-1.178-3.099-.755-.86-1.894-2.264-6.238-2.808-3.06-.384-6.953 0-8.437-2.648-.344-.61-.529-1.325-1.125-1.735a2.652 2.652 0 0 0-2.278.132l-9.655 3.735a18.458 18.458 0 0 1-5.775 1.523c-2.019-.032-4.02-.399-5.92-1.086l-8.781-2.649c-.49-.145-1.059-.37-1.205-.874-.145-.503.345-1.112.517-1.324a16.896 16.896 0 0 0 2.556-4.86 30.687 30.687 0 0 0-5.165 1.84c-4.874 2.291-6.622 4.82-13.099 8.94-4.37 2.794-5.774 3.06-7.045 2.649-2.437-.65-3.722-3.298-4.265-4.662-1.616.432-3.271.874-4.966 1.324-2.053.49-4.08.94-6.04 1.325-.596-2.186 1.417-4.133 3.245-5.484a81.703 81.703 0 0 1 9.668-6.74 94.673 94.673 0 0 0 10.238-6.729l-10.595-1.735c-1.073.583-2.053-2.264-3.272-2.225-.303.05-.59.172-.834.358-2.649 1.642-6.159 1.073-9.046-.133-2.887-1.205-5.549-3.02-8.582-3.814-3.576-.927-7.337-.384-11.032-.53-3.695-.145-7.735-1.244-9.695-4.37-.993-1.59-1.324-3.563-2.649-4.887-1.324-1.325-4.211-1.179-4.423.675 0 .477.106.98 0 1.457-.238 1.325-2 1.656-3.377 1.669-30.726.172-61.492-.106-92.086-2.98-43.983-4.159-86.96-8.714-130.162-17.972-3.695-.795-16.86-4.265-22.197-5.629-8.887-2.265-12.98-3.337-18.118-4.913z" fill="#298FCE"/></svg>
